assets/svg/icon_video_like_on.svg

<svg width="24" height="24" viewBox="0 0 24 24" fill="none" xmlns="http://www.w3.org/2000/svg">
<path d="M18.4835 3.49248C16.3956 2.49521 13.978 3.04925 12 4.82216C10.022 3.04925 7.6044 2.60602 5.51648 3.60328C3.31868 4.60055 2 6.9275 2 9.47606C2 11.6922 2.76923 13.6867 4.41758 15.5705C5.51648 16.7893 6.83517 17.8974 7.93407 18.7839C8.15385 18.8947 8.48352 19.1163 8.7033 19.3379C9.14286 19.6703 9.69231 20.1135 10.2418 20.446C10.9011 20.8892 11.4506 21 12 21C12.5495 21 13.2088 20.7784 13.7582 20.446C14.3077 20.1135 14.8571 19.6703 15.2967 19.3379C15.5165 19.1163 15.7363 18.8947 16.0659 18.7839C17.2747 17.8974 18.5934 16.7893 19.5824 15.5705C21.2308 13.6867 22 11.6922 22 9.47606C22 6.81669 20.6813 4.60055 18.4835 3.49248Z" fill="white"/>
</svg>

<svg xmlns="http://www.w3.org/2000/svg" width="24" height="24" fill="none"><path fill="#fff" d="M18.484 3.492c-2.088-.997-4.506-.443-6.484 1.33-1.978-1.773-4.396-2.216-6.484-1.219C3.32 4.601 2 6.928 2 9.476c0 2.216.77 4.21 2.418 6.094 1.098 1.22 2.417 2.327 3.516 3.214.22.11.55.332.77.554.439.332.988.775 1.538 1.108.66.443 1.209.554 1.758.554.55 0 1.209-.222 1.758-.554.55-.333 1.1-.776 1.539-1.108.22-.222.44-.443.769-.554 1.209-.887 2.527-1.995 3.516-3.213C21.231 13.686 22 11.692 22 9.476c0-2.66-1.319-4.875-3.517-5.984"/></svg>
